X:1
T:Title
%%score { 1 | 2 }
L:1/8
M:3/4
K:Eb
V:1 treble nm="Grand Piano"
V:2 bass 
V:1
 z2 z2[Q:1/4=100] [GB]2 | [Ac]3 [GB] [EA][EG] | [DG]2 [DF]2 [DG]2 | E3 E FG |[M:2/4] [DF]4 | %5
[M:1/4] [AB]2 |[M:3/4] [Gc]3 [GB] AG | d2 c2 A2 | G3 [CDA] [B,DG][A,DF] |[M:2/4] [G,E]4 | %10
[M:1/4] [EGB]2 |[M:3/4] [DAB]3 [DF] [Ac][GB] | [EG]2 [GB]2 [GB]2 | B3 F [Ac][GB] |[M:2/4] [EG]4 | %15
[M:1/4] [GB]2 |[M:3/4] [Ge]3 [GB] [_G=A][=GB] | [Bd]2 c2 A2 | %18
 G3 [GB] [FA][DF][Q:1/4=99][Q:1/4=97][Q:1/4=96][Q:1/4=94][Q:1/4=93][Q:1/4=91][Q:1/4=90][Q:1/4=88][Q:1/4=87][Q:1/4=85] | %19
[M:2/4] E4[Q:1/4=84][Q:1/4=82][Q:1/4=81][Q:1/4=79][Q:1/4=78][Q:1/4=76] |] %20
V:2
 z2 z2 [E,E]2 | [E,E]3 [E,E] [E,C][E,B,] | [B,,B,]2 [B,,A,]2 [=B,,G,]2 | %3
 [C,G,C]3 [C,G,C] [F,=A,E][F,A,E] |[M:2/4] [B,,B,]4 |[M:1/4] [B,D]2 | %6
[M:3/4] [E,E]3 [E,E] [E,CE][E,B,E] | [A,E]2 [A,E]2 [A,CF]2 | [B,E]3 B,, B,,B,, |[M:2/4] E,4 | %10
[M:1/4] E,2 |[M:3/4] F,3 B, [B,,B,][B,,B,] | [E,B,]2 [E,E]2 [E,E]2 | %13
 [B,DA]3 [B,D][K:bass] [B,,B,][B,,B,] |[M:2/4] [E,B,]4 |[M:1/4] [E,E]2 | %16
[M:3/4] [E,B,]3 [E,E] [E,E][E,E] | [A,E]2 [A,EA]2 [A,CF]2 | [B,E]3 [B,,B,] [B,,B,][B,,A,] | %19
[M:2/4] [E,G,]4 |] %20

